packages/kaspersky-hexa-ui-icons/src/iconsSVGs/28x20/FlagCas.svg

<svg width="28" height="20" viewBox="0 0 28 20" fill="none" xmlns="http://www.w3.org/2000/svg">
<g clip-path="url(#clip0_5138_2203)">
<rect width="28" height="20" rx="2" fill="white"/>
<mask id="mask0_5138_2203" style="mask-type:luminance" maskUnits="userSpaceOnUse" x="0" y="0" width="28" height="20">
<rect width="28" height="20" rx="2" fill="white"/>
</mask>
<g mask="url(#mask0_5138_2203)">
<rect width="28" height="20" fill="#19BFBF"/>
<path fill-rule="evenodd" clip-rule="evenodd" d="M5.4824 8.36854C5.40007 8.5332 5.46682 8.73343 5.63148 8.81576L7.70186 9.85095C7.86652 9.93328 7.93326 10.1335 7.85093 10.2982L7.4824 11.0352C7.40007 11.1999 7.19985 11.2666 7.03519 11.1843L6.07038 10.7019C6.0241 10.6787 5.97306 10.6667 5.92131 10.6667H4.33333C4.14924 10.6667 4 10.8159 4 11V11.7598C4 11.9032 4.09181 12.0306 4.22792 12.076L5.48833 12.4961C5.72341 12.5745 5.79384 12.8728 5.61863 13.0481L5.43096 13.2357C5.36845 13.2982 5.33333 13.383 5.33333 13.4714V13.9459C5.33333 13.9818 5.33911 14.0173 5.35044 14.0513L5.95634 15.869C5.98429 15.9529 6.04442 16.0222 6.12349 16.0618L7.11844 16.5592C7.24677 16.6234 7.40176 16.5983 7.50322 16.4968L8.66667 15.3334L9.00631 14.9937C9.16719 14.8328 9.12318 14.5616 8.91968 14.4599L8.18426 14.0922C8.07133 14.0357 8 13.9203 8 13.794V13.7603C8 13.5434 8.2038 13.3843 8.41418 13.4369L10.4142 13.9369C10.5626 13.974 10.6667 14.1073 10.6667 14.2603V15.2324C10.6667 15.2982 10.6861 15.3626 10.7226 15.4173L11.901 17.1849C11.9629 17.2777 12.0669 17.3334 12.1784 17.3334H12.441C12.5773 17.3334 12.6999 17.2504 12.7505 17.1238L13.7243 14.6892C13.8311 14.4222 14.2033 14.4067 14.332 14.6639L14.6425 15.285C14.6585 15.317 14.6796 15.3463 14.7049 15.3716L15.9618 16.6284C15.9871 16.6538 16.0163 16.6749 16.0484 16.6909L16.8509 17.0922C17.0726 17.203 17.3333 17.0418 17.3333 16.794V16.1381C17.3333 16.0497 17.2982 15.9649 17.2357 15.9024L16.9024 15.5691C16.7722 15.4389 16.7722 15.2278 16.9024 15.0977L17.2357 14.7643C17.2982 14.7018 17.383 14.6667 17.4714 14.6667H18.588C18.6397 14.6667 18.6908 14.6546 18.737 14.6315L19.8157 14.0922C19.9287 14.0357 20 13.9203 20 13.794V12.8048C20 12.7164 19.9649 12.6316 19.9024 12.5691L19.569 12.2357C19.4389 12.1055 19.4389 11.8945 19.569 11.7643L20.3396 10.9937C20.5005 10.8328 20.7717 10.8768 20.8735 11.0803L21.2509 11.8352C21.3014 11.9362 21.4047 12 21.5176 12C21.7392 12 21.8834 11.7668 21.7843 11.5685L21.4824 10.9648C21.4001 10.8002 21.4668 10.5999 21.6315 10.5176L22.3685 10.1491C22.5332 10.0668 22.5999 9.86654 22.5176 9.70188L22.0617 8.79018C22.0222 8.71111 21.9529 8.65098 21.869 8.62302L20.5117 8.17058C20.2766 8.09222 20.2062 7.79386 20.3814 7.61865L21.2357 6.76432C21.2982 6.70181 21.383 6.66669 21.4714 6.66669H23.1273C23.2536 6.66669 23.369 6.59535 23.4255 6.48242L23.7816 5.77017C23.8866 5.5602 23.7474 5.31039 23.5136 5.28914L17.3754 4.73112C17.094 4.70553 16.9701 4.36329 17.1699 4.16345L17.2357 4.09765C17.2982 4.03514 17.3333 3.95035 17.3333 3.86195V3.00002C17.3333 2.81593 17.1841 2.66669 17 2.66669H14.1381C14.0497 2.66669 13.9649 2.70181 13.9024 2.76432L12.0653 4.6014C12.0226 4.64412 11.969 4.67443 11.9104 4.68908L9.33333 5.33335L6.78629 5.97011C6.7091 5.98941 6.62755 5.98046 6.55638 5.94488L6.05311 5.69324C5.7875 5.56044 5.4939 5.81507 5.58781 6.0968L5.95634 7.20237C5.98429 7.28624 5.97779 7.37778 5.93825 7.45685L5.4824 8.36854ZM14 17.3334C14.3682 17.3334 14.6667 17.0349 14.6667 16.6667C14.6667 16.2985 14.3682 16 14 16C13.6318 16 13.3333 16.2985 13.3333 16.6667C13.3333 17.0349 13.6318 17.3334 14 17.3334ZM10.6667 10C10.6667 10.3682 10.3682 10.6667 10 10.6667C9.63181 10.6667 9.33333 10.3682 9.33333 10C9.33333 9.63183 9.63181 9.33335 10 9.33335C10.3682 9.33335 10.6667 9.63183 10.6667 10ZM22.6667 12.6667V13.3334L21.9024 14.0977C21.6924 14.3076 21.8411 14.6667 22.1381 14.6667H22.4607C22.5869 14.6667 22.7023 14.5954 22.7588 14.4824L23.3333 13.3334L22.6667 12.6667ZM22.6667 12.6667L23.0352 12.4824C23.2755 12.3623 23.19 12 22.9213 12C22.7807 12 22.6667 12.114 22.6667 12.2547V12.6667Z" fill="white"/>
</g>
</g>
<defs>
<clipPath id="clip0_5138_2203">
<rect width="28" height="20" fill="white"/>
</clipPath>
</defs>
</svg>

<svg xmlns="http://www.w3.org/2000/svg" width="28" height="20" fill="none" viewBox="0 0 28 20"><g clip-path="url(#a)"><rect width="28" height="20" fill="#fff" rx="2"/><mask id="b" width="28" height="20" x="0" y="0" maskUnits="userSpaceOnUse" style="mask-type:luminance"><rect width="28" height="20" fill="#fff" rx="2"/></mask><g mask="url(#b)"><path fill="#19bfbf" d="M0 0h28v20H0z"/><path fill="#fff" fill-rule="evenodd" d="M5.4824 8.3685a.3333.3333 0 0 0 .149.4473L7.702 9.8509a.3334.3334 0 0 1 .149.4473l-.3685.737a.3333.3333 0 0 1-.4472.1491l-.9648-.4824a.33.33 0 0 0-.149-.0352h-1.588A.3333.3333 0 0 0 4 11v.7598c0 .1434.0918.2708.228.3162l1.2603.4201c.2351.0784.3055.3767.1303.552l-.1876.1876a.333.333 0 0 0-.0977.2357v.4745a.33.33 0 0 0 .0171.1054l.606 1.8177a.334.334 0 0 0 .167.1928l.995.4974a.333.333 0 0 0 .3848-.0624l1.1635-1.1634.3396-.3397c.1609-.1609.1169-.4321-.0866-.5338l-.7354-.3677A.333.333 0 0 1 8 13.794v-.0337c0-.2169.2038-.376.4142-.3234l2 .5a.333.333 0 0 1 .2525.3234v.9721c0 .0658.0194.1302.0559.1849l1.1784 1.7676a.333.333 0 0 0 .2774.1485h.2626a.333.333 0 0 0 .3095-.2096l.9738-2.4346c.1068-.267.479-.2825.6077-.0253l.3105.6211a.33.33 0 0 0 .0624.0866l1.2569 1.2568a.33.33 0 0 0 .0866.0625l.8025.4013c.2217.1108.4824-.0504.4824-.2982v-.6559a.333.333 0 0 0-.0976-.2357l-.3333-.3333a.3333.3333 0 0 1 0-.4714l.3333-.3334a.333.333 0 0 1 .2357-.0976h1.1166a.33.33 0 0 0 .149-.0352l1.0787-.5393A.333.333 0 0 0 20 13.794v-.9892a.333.333 0 0 0-.0976-.2357l-.3334-.3334a.3335.3335 0 0 1 0-.4714l.7706-.7706c.1609-.1609.4321-.1169.5339.0866l.3774.7549a.298.298 0 0 0 .2667.1648c.2216 0 .3658-.2332.2667-.4315l-.3019-.6037a.3333.3333 0 0 1 .1491-.4472l.737-.3685a.3333.3333 0 0 0 .1491-.4472l-.4559-.9117a.333.333 0 0 0-.1927-.1672l-1.3573-.4524c-.2351-.0784-.3055-.3767-.1303-.552l.8543-.8543a.333.333 0 0 1 .2357-.0976h1.6559a.333.333 0 0 0 .2982-.1843l.3561-.7122c.105-.21-.0342-.4598-.268-.481l-6.1382-.558c-.2814-.0257-.4053-.368-.2055-.5678l.0658-.0658a.333.333 0 0 0 .0976-.2356V3A.3333.3333 0 0 0 17 2.6667h-2.8619a.333.333 0 0 0-.2357.0976l-1.8371 1.8371a.333.333 0 0 1-.1549.0877l-2.577.6443-2.5471.6367a.333.333 0 0 1-.23-.0252l-.5032-.2517c-.2656-.1328-.5592.1219-.4653.4036l.3685 1.1056a.333.333 0 0 1-.018.2545zM14 17.3334A.6667.6667 0 1 0 14 16a.6667.6667 0 0 0 0 1.3334M10.6667 10a.6667.6667 0 1 1-1.3334 0 .6667.6667 0 0 1 1.3334 0m12 2.6667v.6667l-.7643.7643c-.21.2099-.0613.569.2357.569h.3226a.333.333 0 0 0 .2981-.1843l.5745-1.149zm0 0 .3685-.1843c.2403-.1201.1548-.4824-.1139-.4824a.2546.2546 0 0 0-.2546.2547z" clip-rule="evenodd"/></g></g><defs><clipPath id="a"><path fill="#fff" d="M0 0h28v20H0z"/></clipPath></defs></svg>
